svg/fluentui-system-icons/ic_fluent_document_add_28_filled.svg

<svg width="28" height="28" viewBox="0 0 28 28" fill="none" xmlns="http://www.w3.org/2000/svg">
<path d="M14 2V10C14 11.1046 14.8954 12 16 12H24V24C24 25.1046 23.1046 26 22 26H12.5991C14.0758 24.6303 15 22.6731 15 20.5C15 16.3579 11.6421 13 7.5 13C6.23591 13 5.04486 13.3127 4 13.865V4C4 2.89543 4.89543 2 6 2H14ZM15.5 2.5V10C15.5 10.2761 15.7239 10.5 16 10.5H23.5L15.5 2.5ZM14 20.5C14 24.0899 11.0899 27 7.5 27C3.91015 27 1 24.0899 1 20.5C1 16.9101 3.91015 14 7.5 14C11.0899 14 14 16.9101 14 20.5ZM8 16.5C8 16.2239 7.77614 16 7.5 16C7.22386 16 7 16.2239 7 16.5V20H3.5C3.22386 20 3 20.2239 3 20.5C3 20.7761 3.22386 21 3.5 21H7L7 24.5C7 24.7761 7.22386 25 7.5 25C7.77614 25 8 24.7761 8 24.5V21H11.5C11.7761 21 12 20.7761 12 20.5C12 20.2239 11.7761 20 11.5 20H8V16.5Z" fill="#212121"/>
</svg>

<svg xmlns="http://www.w3.org/2000/svg" width="28" height="28"><path d="M14 2v8a2 2 0 0 0 2 2h8v12a2 2 0 0 1-2 2h-9.4A7.5 7.5 0 0 0 4 13.865V4a2 2 0 0 1 2-2h8Zm1.5.5V10a.5.5 0 0 0 .5.5h7.5l-8-8Zm-1.5 18a6.5 6.5 0 1 1-13 0 6.5 6.5 0 0 1 13 0Zm-6-4a.5.5 0 0 0-1 0V20H3.5a.5.5 0 0 0 0 1H7v3.5a.5.5 0 0 0 1 0V21h3.5a.5.5 0 0 0 0-1H8v-3.5Z"/></svg>
